X: 10852
T: MISS DRUMMOND OF PERTHS STRATHSPEY
R: strathspey
B: "Edinburgh Repository of Music" v.1 p.85 #2
F: http://digital.nls.uk/special-collections-of-printed-music/pageturner.cfm?id=87776133
Z: 2015 John Chambers <jc:trillian.mit.edu>
M: C|
L: 1/8
K: Am	% Actually Adorian
a |\
A<Ae>d B<de2 | d<gB<g d<gBG |\
A<Ae>d Bdeg | a>eg>B {B}A2A :|\
g |\
a<ae<a c<ae2 | g<gdg B<gd2 |
a<ae<a c<ae>(g | a)>eg>B {B}A2Ag |\
a<ae<a c<ae^f | g<gd<g B<gd<g |\
a<a e<a g<be>(g | a)>eg>B {B}A2A |]

%%sep 2 1 500
%%sep 1 1 500

